X: 24566
T: Lunchtime Boredom
R: reel
M: 4/4
K: Edorian
|:EGGF GAAG|EFGA BGBd|=c^cAG EAAG|Eede cAGF|
EGGF GAAG|EFGA BGBd|=c^cAG EAAG|1 AB{c}BA BcAG:|2 ABcA cdef||
|:fged Bggf|fged Bcdf|ecAG EAAG|ABcA cdef|
fged Bggf|fged Bcdf|eede cAee|decA AGE2|
fged Bggf|fged Bcdf|ecAG EAAG|AB{c}BA BcAG|
EGGF GAAG|EFGA BGBd|=c^cAG EAAG|Eede cAGF||

